src/amo/components/Icon/img/comments-blue.svg

<svg width="16px" height="15px" viewBox="0 0 16 15" version="1.1" xmlns="http://www.w3.org/2000/svg" xmlns:xlink="http://www.w3.org/1999/xlink">
    <!-- Generator: Sketch 49.3 (51167) - http://www.bohemiancoding.com/sketch -->
    <desc>Created with Sketch.</desc>
    <defs></defs>
    <g id="Screens" stroke="none" stroke-width="1" fill="none" fill-rule="evenodd">
        <g id="Collections---Edit-Collection---1366px" transform="translate(-919.000000, -722.000000)" fill="#0A84FF" fill-rule="nonzero">
            <g id="Group-6" transform="translate(919.000000, 722.000000)">
                <path d="M13.577,2.22044605e-16 L2.423,2.22044605e-16 C1.08549932,0.00165293785 0.00165293785,1.08549932 0,2.423 L0,8.577 C0.00165293785,9.91450068 1.08549932,10.9983471 2.423,11 L8.26,11 L11.226,14.633 C11.4936161,14.9601314 11.9379992,15.0836914 12.3360673,14.9416524 C12.7341355,14.7996134 12.9999216,14.4226503 13,14 L13,11 L13.577,11 C14.9145007,10.9983471 15.9983471,9.91450068 16,8.577 L16,2.423 C15.9983471,1.08549932 14.9145007,0.00165293785 13.577,2.22044605e-16 Z M14,8.577 C14,8.68918658 13.9554341,8.79677828 13.8761062,8.87610617 C13.7967783,8.95543406 13.6891866,9 13.577,9 L12,9 C11.4477153,9 11,9.44771525 11,10 L11,11.194 L9.509,9.367 C9.31888626,9.13449284 9.03433773,8.99974534 8.734,9 L2.423,9 C2.31081342,9 2.20322172,8.95543406 2.12389383,8.87610617 C2.04456594,8.79677828 2,8.68918658 2,8.577 L2,2.423 C2,2.18938355 2.18938355,2 2.423,2 L13.577,2 C13.8106164,2 14,2.18938355 14,2.423 L14,8.577 Z" id="Shape"></path>
                <path d="M11.5,4 L4.5,4 C4.22385763,4 4,4.22385763 4,4.5 C4,4.77614237 4.22385763,5 4.5,5 L11.5,5 C11.7761424,5 12,4.77614237 12,4.5 C12,4.22385763 11.7761424,4 11.5,4 Z M11.5,6 L4.5,6 C4.22385763,6 4,6.22385763 4,6.5 C4,6.77614237 4.22385763,7 4.5,7 L11.5,7 C11.7761424,7 12,6.77614237 12,6.5 C12,6.22385763 11.7761424,6 11.5,6 Z" id="Shape"></path>
            </g>
        </g>
    </g>
</svg>

<svg width="16" height="15" xmlns="http://www.w3.org/2000/svg"><g fill="#0A84FF" fill-rule="nonzero"><path d="M13.577 0H2.423A2.426 2.426 0 0 0 0 2.423v6.154A2.426 2.426 0 0 0 2.423 11H8.26l2.966 3.633A1 1 0 0 0 13 14v-3h.577A2.426 2.426 0 0 0 16 8.577V2.423A2.426 2.426 0 0 0 13.577 0ZM14 8.577a.423.423 0 0 1-.423.423H12a1 1 0 0 0-1 1v1.194L9.509 9.367A1 1 0 0 0 8.734 9H2.423A.423.423 0 0 1 2 8.577V2.423C2 2.189 2.19 2 2.423 2h11.154c.234 0 .423.19.423.423v6.154Z"/><path d="M11.5 4h-7a.5.5 0 0 0 0 1h7a.5.5 0 1 0 0-1Zm0 2h-7a.5.5 0 0 0 0 1h7a.5.5 0 1 0 0-1Z"/></g></svg>
